svg/set/SPG/C.svg

<?xml version="1.0" encoding="UTF-8"?>
<svg id="Layer_2" data-name="Layer 2" xmlns="http://www.w3.org/2000/svg" viewBox="0 0 1073.33 1022.01">
  <defs>
    <style>
      .cls-1, .cls-2, .cls-3 {
        fill-rule: evenodd;
      }

      .cls-1, .cls-3 {
        stroke-width: 0px;
      }

      .cls-2 {
        stroke: #000;
        stroke-linecap: round;
        stroke-linejoin: round;
        stroke-width: 1.08px;
      }

      .cls-3 {
        fill: #fff;
      }
    </style>
  </defs>
  <g id="Layer_1-2" data-name="Layer 1">
    <g id="M">
      <path class="cls-3" d="M273.24,817.21l50.75-292.58-212.47-206.99,293.57-43.29L536.46,7.14l131.86,266.7,294.07,43.29-212.47,206.99,50.26,292.08-262.72-137.33-264.22,138.33Z"/>
      <g id="Ebene1">
        <path class="cls-3" d="M309.43,856.56l227.02,165.45,227.02-165.45-227.02-120.04-227.02,120.04Z"/>
        <g id="Ebene11">
          <path class="cls-3" d="M0,631.6l86.62-267.18,183.75,178.65-43.63,253.49L0,631.6Z"/>
          <path class="cls-3" d="M0,631.6l86.62-267.18,183.75,178.65-43.63,253.49L0,631.6Z"/>
        </g>
        <path class="cls-3" d="M1073.33,632.41l-86.62-267.18-183.75,178.65,43.63,253.49,226.74-164.96Z"/>
        <path class="cls-3" d="M702.24,230.13L588.42.62l281.13-.62,86.46,265.58-253.77-35.45Z"/>
        <path class="cls-3" d="M371.97,230.75L485.79,1.24,204.66.62l-86.46,265.58,253.77-35.45Z"/>
      </g>
      <g id="Ebene2">
        <path class="cls-1" d="M176.76,338.33l248.17-36.07,111.33-225.78,111.96,225.16,248.79,36.7-179.13,175.4,42.29,248.17-222.67-116.93-223.29,115.69,41.67-246.92-179.13-175.4Z"/>
        <path class="cls-2" d="M205.58,742.44l32.96-187.84-137.46-134.97-65.31,200.28,169.8,122.53Z"/>
        <path class="cls-2" d="M868.09,744.87l-32.96-187.84,137.46-134.97,65.31,200.28-169.8,122.53Z"/>
        <path class="cls-2" d="M912.17,230.64l-65.18-199.03h-209.48l84.59,171.17,190.08,27.86Z"/>
        <path class="cls-2" d="M161.54,230.42L226.72,31.39h209.48l-84.59,171.17-190.08,27.86Z"/>
        <path class="cls-2" d="M366.63,860.11l169.68-88.57,169.18,88.57-168.68,123.4-170.17-123.4Z"/>
      </g>
    </g>
  </g>
</svg>

<?xml version="1.0" encoding="UTF-8" standalone="no"?>
<svg
   id="Layer_2"
   data-name="Layer 2"
   viewBox="0 0 1073.33 1022.01"
   version="1.1"
   width="1073.33"
   height="1022.01"
   xmlns="http://www.w3.org/2000/svg"
   xmlns:svg="http://www.w3.org/2000/svg">
  <defs
     id="defs1">
    <style
       id="style1">
      .cls-1, .cls-2, .cls-3 {
        fill-rule: evenodd;
      }

      .cls-1, .cls-3 {
        stroke-width: 0px;
      }

      .cls-2 {
        stroke: #000;
        stroke-linecap: round;
        stroke-linejoin: round;
        stroke-width: 1.08px;
      }

      .cls-3 {
        fill: #fff;
      }
    </style>
  </defs>
  <g
     id="Layer_1-2"
     data-name="Layer 1">
    <g
       id="M">
      <path
         class="cls-3"
         d="M 273.24,817.21 323.99,524.63 111.52,317.64 405.09,274.35 536.46,7.14 668.32,273.84 962.39,317.13 749.92,524.12 800.18,816.2 537.46,678.87 273.24,817.2 Z"
         id="path1" />
      <g
         id="Ebene1">
        <path
           class="cls-3"
           d="M 309.43,856.56 536.45,1022.01 763.47,856.56 536.45,736.52 Z"
           id="path2" />
        <g
           id="Ebene11">
          <path
             class="cls-3"
             d="M 0,631.6 86.62,364.42 270.37,543.07 226.74,796.56 Z"
             id="path3" />
          <path
             class="cls-3"
             d="M 0,631.6 86.62,364.42 270.37,543.07 226.74,796.56 Z"
             id="path4" />
        </g>
        <path
           class="cls-3"
           d="M 1073.33,632.41 986.71,365.23 802.96,543.88 846.59,797.37 Z"
           id="path5" />
        <path
           class="cls-3"
           d="M 702.24,230.13 588.42,0.62 869.55,0 956.01,265.58 Z"
           id="path6" />
        <path
           class="cls-3"
           d="M 371.97,230.75 485.79,1.24 204.66,0.62 118.2,266.2 Z"
           id="path7" />
      </g>
      <g
         id="Ebene2">
        <path
           class="cls-1"
           d="M 176.76,338.33 424.93,302.26 536.26,76.48 648.22,301.64 897.01,338.34 717.88,513.74 760.17,761.91 537.5,644.98 314.21,760.67 355.88,513.75 176.75,338.35 Z"
           id="path8" />
        <path
           class="cls-2"
           d="M 205.58,742.44 238.54,554.6 101.08,419.63 35.77,619.91 205.57,742.44 Z"
           id="path9" />
        <path
           class="cls-2"
           d="M 868.09,744.87 835.13,557.03 972.59,422.06 1037.9,622.34 868.1,744.87 Z"
           id="path10" />
        <path
           class="cls-2"
           d="M 912.17,230.64 846.99,31.61 H 637.51 l 84.59,171.17 190.08,27.86 z"
           id="path11" />
        <path
           class="cls-2"
           d="M 161.54,230.42 226.72,31.39 H 436.2 l -84.59,171.17 -190.08,27.86 z"
           id="path12" />
        <path
           class="cls-2"
           d="M 366.63,860.11 536.31,771.54 705.49,860.11 536.81,983.51 366.64,860.11 Z"
           id="path13" />
      </g>
    </g>
  </g>
</svg>
